public/assets/images/career/12.svg

<svg width="20" height="20" viewBox="0 0 20 20" fill="none" xmlns="http://www.w3.org/2000/svg">
<path fill-rule="evenodd" clip-rule="evenodd" d="M6.04169 2.81599C5.73335 2.60997 5.37084 2.5 5 2.5C4.50272 2.5 4.0258 2.69754 3.67417 3.04917C3.32254 3.40081 3.125 3.87772 3.125 4.375C3.125 4.74584 3.23497 5.10835 3.44099 5.41669C3.64702 5.72504 3.93986 5.96536 4.28247 6.10727C4.62508 6.24919 5.00208 6.28632 5.36579 6.21397C5.72951 6.14162 6.0636 5.96305 6.32582 5.70083C6.58805 5.4386 6.76662 5.10451 6.83897 4.74079C6.91132 4.37708 6.87419 4.00008 6.73227 3.65747C6.59036 3.31486 6.35004 3.02202 6.04169 2.81599ZM3.26384 1.77666C3.77775 1.43328 4.38193 1.25 5 1.25C5.8288 1.25 6.62366 1.57924 7.20971 2.16529C7.79576 2.75134 8.125 3.5462 8.125 4.375C8.125 4.99307 7.94172 5.59725 7.59834 6.11116C7.25496 6.62506 6.7669 7.0256 6.19588 7.26212C5.62487 7.49865 4.99653 7.56053 4.39034 7.43995C3.78415 7.31938 3.22733 7.02175 2.79029 6.58471C2.35325 6.14767 2.05562 5.59085 1.93504 4.98466C1.81447 4.37847 1.87635 3.75013 2.11288 3.17911C2.3494 2.60809 2.74994 2.12004 3.26384 1.77666ZM16.0417 7.81599C15.7334 7.60997 15.3708 7.5 15 7.5C14.5027 7.5 14.0258 7.69754 13.6742 8.04917C13.3225 8.40081 13.125 8.87772 13.125 9.375C13.125 9.74584 13.235 10.1084 13.441 10.4167C13.647 10.725 13.9399 10.9654 14.2825 11.1073C14.6251 11.2492 15.0021 11.2863 15.3658 11.214C15.7295 11.1416 16.0636 10.963 16.3258 10.7008C16.588 10.4386 16.7666 10.1045 16.839 9.74079C16.9113 9.37708 16.8742 9.00008 16.7323 8.65747C16.5904 8.31486 16.35 8.02202 16.0417 7.81599ZM13.2638 6.77666C13.7777 6.43328 14.3819 6.25 15 6.25C15.8288 6.25 16.6237 6.57924 17.2097 7.16529C17.7958 7.75134 18.125 8.5462 18.125 9.375C18.125 9.99307 17.9417 10.5973 17.5983 11.1112C17.255 11.6251 16.7669 12.0256 16.1959 12.2621C15.6249 12.4986 14.9965 12.5605 14.3903 12.44C13.7842 12.3194 13.2273 12.0217 12.7903 11.5847C12.3533 11.1477 12.0556 10.5908 11.935 9.98466C11.8145 9.37847 11.8764 8.75013 12.1129 8.17911C12.3494 7.6081 12.7499 7.12004 13.2638 6.77666ZM18.125 18.75H19.375V16.875C19.375 16.0462 19.0458 15.2513 18.4597 14.6653C17.8737 14.0792 17.0788 13.75 16.25 13.75H13.75C12.9212 13.75 12.1263 14.0792 11.5403 14.6653C10.9542 15.2513 10.625 16.0462 10.625 16.875V18.75H11.875V16.875C11.875 16.3777 12.0725 15.9008 12.4242 15.5492C12.7758 15.1975 13.2527 15 13.75 15H16.25C16.7473 15 17.2242 15.1975 17.5758 15.5492C17.9275 15.9008 18.125 16.3777 18.125 16.875V18.75ZM9.375 13.75H8.125V11.875C8.125 11.3777 7.92746 10.9008 7.57583 10.5492C7.22419 10.1975 6.74728 10 6.25 10H3.75C3.25272 10 2.77581 10.1975 2.42417 10.5492C2.07254 10.9008 1.875 11.3777 1.875 11.875V13.75H0.625V11.875C0.625 11.0462 0.95424 10.2513 1.54029 9.66529C2.12634 9.07924 2.9212 8.75 3.75 8.75H6.25C7.0788 8.75 7.87366 9.07924 8.45971 9.66529C9.04576 10.2513 9.375 11.0462 9.375 11.875V13.75Z" fill="#505155"/>
<path fill-rule="evenodd" clip-rule="evenodd" d="M6.04169 2.81599C5.73335 2.60997 5.37084 2.5 5 2.5C4.50272 2.5 4.0258 2.69754 3.67417 3.04917C3.32254 3.40081 3.125 3.87772 3.125 4.375C3.125 4.74584 3.23497 5.10835 3.44099 5.41669C3.64702 5.72504 3.93986 5.96536 4.28247 6.10727C4.62508 6.24919 5.00208 6.28632 5.36579 6.21397C5.72951 6.14162 6.0636 5.96305 6.32582 5.70083C6.58805 5.4386 6.76662 5.10451 6.83897 4.74079C6.91132 4.37708 6.87419 4.00008 6.73227 3.65747C6.59036 3.31486 6.35004 3.02202 6.04169 2.81599ZM3.26384 1.77666C3.77775 1.43328 4.38193 1.25 5 1.25C5.8288 1.25 6.62366 1.57924 7.20971 2.16529C7.79576 2.75134 8.125 3.5462 8.125 4.375C8.125 4.99307 7.94172 5.59725 7.59834 6.11116C7.25496 6.62506 6.7669 7.0256 6.19588 7.26212C5.62487 7.49865 4.99653 7.56053 4.39034 7.43995C3.78415 7.31938 3.22733 7.02175 2.79029 6.58471C2.35325 6.14767 2.05562 5.59085 1.93504 4.98466C1.81447 4.37847 1.87635 3.75013 2.11288 3.17911C2.3494 2.60809 2.74994 2.12004 3.26384 1.77666ZM16.0417 7.81599C15.7334 7.60997 15.3708 7.5 15 7.5C14.5027 7.5 14.0258 7.69754 13.6742 8.04917C13.3225 8.40081 13.125 8.87772 13.125 9.375C13.125 9.74584 13.235 10.1084 13.441 10.4167C13.647 10.725 13.9399 10.9654 14.2825 11.1073C14.6251 11.2492 15.0021 11.2863 15.3658 11.214C15.7295 11.1416 16.0636 10.963 16.3258 10.7008C16.588 10.4386 16.7666 10.1045 16.839 9.74079C16.9113 9.37708 16.8742 9.00008 16.7323 8.65747C16.5904 8.31486 16.35 8.02202 16.0417 7.81599ZM13.2638 6.77666C13.7777 6.43328 14.3819 6.25 15 6.25C15.8288 6.25 16.6237 6.57924 17.2097 7.16529C17.7958 7.75134 18.125 8.5462 18.125 9.375C18.125 9.99307 17.9417 10.5973 17.5983 11.1112C17.255 11.6251 16.7669 12.0256 16.1959 12.2621C15.6249 12.4986 14.9965 12.5605 14.3903 12.44C13.7842 12.3194 13.2273 12.0217 12.7903 11.5847C12.3533 11.1477 12.0556 10.5908 11.935 9.98466C11.8145 9.37847 11.8764 8.75013 12.1129 8.17911C12.3494 7.6081 12.7499 7.12004 13.2638 6.77666ZM18.125 18.75H19.375V16.875C19.375 16.0462 19.0458 15.2513 18.4597 14.6653C17.8737 14.0792 17.0788 13.75 16.25 13.75H13.75C12.9212 13.75 12.1263 14.0792 11.5403 14.6653C10.9542 15.2513 10.625 16.0462 10.625 16.875V18.75H11.875V16.875C11.875 16.3777 12.0725 15.9008 12.4242 15.5492C12.7758 15.1975 13.2527 15 13.75 15H16.25C16.7473 15 17.2242 15.1975 17.5758 15.5492C17.9275 15.9008 18.125 16.3777 18.125 16.875V18.75ZM9.375 13.75H8.125V11.875C8.125 11.3777 7.92746 10.9008 7.57583 10.5492C7.22419 10.1975 6.74728 10 6.25 10H3.75C3.25272 10 2.77581 10.1975 2.42417 10.5492C2.07254 10.9008 1.875 11.3777 1.875 11.875V13.75H0.625V11.875C0.625 11.0462 0.95424 10.2513 1.54029 9.66529C2.12634 9.07924 2.9212 8.75 3.75 8.75H6.25C7.0788 8.75 7.87366 9.07924 8.45971 9.66529C9.04576 10.2513 9.375 11.0462 9.375 11.875V13.75Z" fill="black" fill-opacity="0.8"/>
</svg>

<svg xmlns="http://www.w3.org/2000/svg" width="20" height="20" fill="none" viewBox="0 0 20 20"><path fill="#505155" fill-rule="evenodd" d="M6.042 2.816a1.875 1.875 0 1 0-2.084 3.118 1.875 1.875 0 0 0 2.084-3.118m-2.778-1.04a3.125 3.125 0 1 1 3.472 5.197 3.125 3.125 0 0 1-3.472-5.196m12.778 6.04a1.875 1.875 0 1 0-2.084 3.118 1.875 1.875 0 0 0 2.084-3.118m-2.778-1.04a3.125 3.125 0 1 1 3.472 5.197 3.125 3.125 0 0 1-3.472-5.196m4.861 11.974h1.25v-1.875a3.125 3.125 0 0 0-3.125-3.125h-2.5a3.125 3.125 0 0 0-3.125 3.125v1.875h1.25v-1.875A1.875 1.875 0 0 1 13.75 15h2.5a1.875 1.875 0 0 1 1.875 1.875zm-8.75-5h-1.25v-1.875A1.875 1.875 0 0 0 6.25 10h-2.5a1.875 1.875 0 0 0-1.875 1.875v1.875H.625v-1.875A3.125 3.125 0 0 1 3.75 8.75h2.5a3.125 3.125 0 0 1 3.125 3.125z" clip-rule="evenodd"/><path fill="#000" fill-opacity=".8" fill-rule="evenodd" d="M6.042 2.816a1.875 1.875 0 1 0-2.084 3.118 1.875 1.875 0 0 0 2.084-3.118m-2.778-1.04a3.125 3.125 0 1 1 3.472 5.197 3.125 3.125 0 0 1-3.472-5.196m12.778 6.04a1.875 1.875 0 1 0-2.084 3.118 1.875 1.875 0 0 0 2.084-3.118m-2.778-1.04a3.125 3.125 0 1 1 3.472 5.197 3.125 3.125 0 0 1-3.472-5.196m4.861 11.974h1.25v-1.875a3.125 3.125 0 0 0-3.125-3.125h-2.5a3.125 3.125 0 0 0-3.125 3.125v1.875h1.25v-1.875A1.875 1.875 0 0 1 13.75 15h2.5a1.875 1.875 0 0 1 1.875 1.875zm-8.75-5h-1.25v-1.875A1.875 1.875 0 0 0 6.25 10h-2.5a1.875 1.875 0 0 0-1.875 1.875v1.875H.625v-1.875A3.125 3.125 0 0 1 3.75 8.75h2.5a3.125 3.125 0 0 1 3.125 3.125z" clip-rule="evenodd"/></svg>
